X: 23534
T: Lieutenant Maguire's
R: jig
M: 6/8
K: Bminor
|:"Bm"BBB d2e|fBB fBB|"A"AAA c2d|eAA eAA|
"G"BBB d2e|fBB fBB|fff "F#m"edc|"Bm"dBB B3:|
|:"D"d2e fdd|add fed|"G"d2e fdd|"A"eAA ABc|
"D"d2e fdd|add fed|"G"eee "F#m"f2e|"Bm"dBB B3:|

